X: 1
T: SHEPHERD'S HEY
S: MDT
O: Bampton
P: A.A6B3(A2B3)2.A2
W: 1/2=88
B: Morris Ring
Z: 2005 John Chambers <jc@trillian.mit.edu>
M: 4/4
L: 1/8
K: G
P: A
|: D | GBdB c2c2 | BcdB A2A2 | GBdB c2Bc | d2D2 G4 :|
P: B
B | d2B2 c3d/c/ | B2G2 A4 | GBdB c2Bc | d2ef g2a/g/f/e/ |
    d2B2 c3d/c/ | B2G2 A4 | GBdB c2Bc | d2D2 G3 ||
